static/images/mobile/copyright/wikipedia-wordmark-ca.svg

<?xml version="1.0" encoding="UTF-8"?>
<svg viewBox="0 0 95 18" version="1.1" xmlns="http://www.w3.org/2000/svg" xmlns:xlink="http://www.w3.org/1999/xlink">
    <title>Catalan Wikipedia</title>

        <g id="ca" fill="#54595D" stroke="none"  fill-rule="evenodd">
            <path d="M17.072,12.256 C17.04,10.936 17.024,10.208 17.024,8.88 C17.024,7.552 17.032,6.768 17.072,5.424 C17.112,4.096 17.336,4.048 18.456,3.968 C18.552,3.872 18.552,3.696 18.456,3.6 C17.864,3.632 16.864,3.68 16.384,3.68 C15.904,3.68 14.824,3.632 14.312,3.6 C14.216,3.696 14.216,3.872 14.312,3.968 C15.432,4.064 15.68,4.096 15.712,5.424 C15.744,6.752 15.76,7.536 15.76,8.864 C15.76,10.192 15.744,10.928 15.712,12.256 C15.68,13.584 15.432,13.664 14.312,13.712 C14.216,13.808 14.216,13.984 14.312,14.08 C14.936,14.048 15.912,14 16.392,14 C16.872,14 17.8,14.032 18.456,14.08 C18.552,13.984 18.552,13.808 18.456,13.712 C17.336,13.664 17.104,13.584 17.072,12.256 Z M24.08,3.856 C22.624,3.856 20.864,5.408 20.864,8.768 C20.864,11.84 22.752,13.776 24.704,13.776 C26.528,13.776 27.952,11.904 27.952,9.04 C27.952,5.808 26.192,3.856 24.08,3.856 Z M29.392,8.736 C29.392,10.08 29.072,11.2368 28.4352002,12.144 C27.7247998,13.1583999 26.6703999,13.8512 25.3536001,14.0783999 C24.8192002,14.2352 23.9583999,14.6336001 23.1536001,15.224 C23.2687998,15.208 23.456,15.2 23.552,15.2 C25.312,15.2 26.608,16.512 28.016,16.512 C28.48,16.512 29.056,16.272 29.408,15.84 L29.68,16.032 C29.056,16.928 28.384,17.344 27.376,17.344 C25.296,17.344 24.288,15.824 22.8,15.824 C22.56,15.824 21.952,16.032 21.632,16.768 L21.008,16.448 C21.5743999,15.6272 22.7072,14.6896001 23.944,14.1423999 C21.4256001,13.9423999 19.424,12.0208 19.424,9.04 C19.424,7.6447998 19.7823999,6.3887998 20.4848,5.424 C21.3616001,4.2207998 22.6992,3.472 24.288,3.472 C27.152,3.472 29.392,5.424 29.392,8.736 Z M32.832,9.696 L32.832,7.872 C32.832,7.072 32.832,6.4 32.864,5.424 C32.896,4.096 33.168,4.016 34.288,3.968 C34.384,3.872 34.384,3.696 34.288,3.6 C33.504,3.616 33.0192,3.68 32.208,3.68 C31.3968,3.68 30.928,3.616 30.128,3.6 C30.032,3.696 30.032,3.872 30.128,3.968 C31.248,4.016 31.504,4.096 31.536,5.424 C31.568,6.752 31.568,7.536 31.568,8.864 L31.568,10.224 C31.568,13.488 33.84,14.16 35.28,14.16 C38.56,14.16 39.248,12.128 39.248,9.28 L39.248,5.424 C39.248,4.096 39.536,4.08 40.496,3.968 C40.592,3.872 40.592,3.696 40.496,3.6 C39.712,3.616 39.5407998,3.68 38.928,3.68 C38.2415996,3.68 37.968,3.616 37.168,3.6 C37.072,3.696 37.072,3.872 37.168,3.968 C38.368,4.08 38.64,4.096 38.64,5.424 L38.64,9.568 C38.64,11.36 38.304,13.664 35.6,13.664 C34.832,13.664 34.192,13.248 33.712,12.784 C32.928,12.032 32.832,10.736 32.832,9.696 Z M44.112,12.256 C44.08,10.936 44.064,10.208 44.064,8.88 C44.064,7.552 44.072,6.768 44.112,5.424 C44.152,4.096 44.376,4.048 45.496,3.968 C45.592,3.872 45.592,3.696 45.496,3.6 C44.904,3.632 43.904,3.68 43.424,3.68 C42.944,3.68 41.864,3.632 41.352,3.6 C41.256,3.696 41.256,3.872 41.352,3.968 C42.472,4.064 42.72,4.096 42.752,5.424 C42.784,6.752 42.8,7.536 42.8,8.864 C42.8,10.192 42.784,10.928 42.752,12.256 C42.72,13.584 42.472,13.664 41.352,13.712 C41.256,13.808 41.256,13.984 41.352,14.08 C41.976,14.048 42.952,14 43.432,14 C43.912,14 44.84,14.032 45.496,14.08 C45.592,13.984 45.592,13.808 45.496,13.712 C44.376,13.664 44.144,13.584 44.112,12.256 Z M49.264,9.264 C49.264,10.416 49.28,11.44 49.296,12.64 C49.312,13.568 49.84,13.648 50.944,13.712 C51.04,13.808 51.04,13.984 50.944,14.08 C50.144,14.064 49.568,14 48.672,14 C47.856,14 47.376,14.064 46.592,14.08 C46.496,13.984 46.496,13.808 46.592,13.712 C47.712,13.664 47.936,13.6 47.968,12.256 C48,10.928 48,10.192 48,8.864 C48,7.536 47.984,6.752 47.968,5.424 C47.952,4.096 47.712,4.016 46.592,3.968 C46.496,3.872 46.496,3.696 46.592,3.6 C47.392,3.616 47.84,3.68 48.64,3.68 C49.28,3.68 50.4,3.52 50.816,3.52 C53.776,3.52 54.368,5.28 54.368,6.224 C54.368,7.584 53.536,9.408 50.624,9.408 C50.08,9.408 49.616,9.376 49.264,9.264 Z M49.296,4.672 C49.28,6 49.264,7.536 49.264,8.864 L49.264,8.944 C49.472,8.992 50.144,9.024 50.528,9.024 C52.08,9.024 52.96,8.24 52.96,6.512 C52.96,4.48 51.824,3.904 50.72,3.904 C49.568,3.904 49.312,4.208 49.296,4.672 Z M58.8703999,0.928 C58.3232,1.11359961 57.9472,1.3647998 57.6543999,1.648 L60.1183999,2.656 C60.4543999,2.8 60.6783999,2.848 60.8063999,2.848 C60.9343999,2.848 61.0463999,2.736 61.0463999,2.608 C61.0463999,2.496 60.9823999,2.4 60.8063999,2.272 L58.8703999,0.928 Z M60.064,8.288 L58.192,8.304 C58.192,8.304 58.176,6.128 58.224,4.816 C58.24,4.432 58.432,4.112 58.816,4.112 L61.312,4.112 C62.512,4.112 62.752,4.96 63.104,6.064 C63.296,6.096 63.328,6.064 63.488,5.984 C63.408,5.328 63.168,3.744 63.136,3.616 C63.136,3.584 63.12,3.568 63.072,3.568 C62.8,3.616 62.656,3.68 62.272,3.68 L57.6,3.68 C57.12,3.68 56.32,3.616 55.52,3.6 C55.424,3.696 55.424,3.872 55.52,3.968 C56.64,4.016 56.848,4.096 56.896,5.424 C56.928,6.736 56.928,7.536 56.928,8.864 C56.928,10.192 56.928,10.944 56.896,12.256 C56.848,13.584 56.64,13.664 55.52,13.712 C55.424,13.808 55.424,13.984 55.52,14.08 C56.304,14.064 57.152,14 57.632,14 L61.184,14 C61.952,14 63.232,14.08 63.232,14.08 C63.456,13.28 63.68,12.176 63.808,11.36 C63.648,11.264 63.632,11.232 63.424,11.28 C63.104,12.432 62.528,13.584 61.312,13.584 L58.816,13.584 C58.464,13.584 58.24,13.328 58.224,12.896 C58.176,11.552 58.192,8.752 58.192,8.752 L60.064,8.768 C61.424,8.7792002 61.488,9.12 61.536,9.84 C61.632,9.936 61.792,9.936 61.888,9.84 C61.872,9.28 61.824,9.08 61.824,8.592 C61.824,8.0543999 61.872,7.696 61.888,7.216 C61.792,7.12 61.632,7.12 61.536,7.216 C61.488,8.096 61.424,8.2767998 60.064,8.288 Z M67.344,12.256 C67.376,13.248 67.488,13.696 69.216,13.696 C71.472,13.696 73.536,12.688 73.536,9.456 C73.536,6.992 72.272,3.984 68.816,3.984 C67.344,3.984 67.376,4.432 67.344,5.424 C67.312,6.768 67.28,7.552 67.28,8.88 C67.28,10.208 67.296,10.944 67.344,12.256 Z M66.64,3.68 C67.248,3.68 68.336,3.6 69.424,3.6 C72.496,3.6 74.976,6.096 74.976,9.072 C74.976,13.008 71.968,14.08 69.712,14.08 C68.064,14.08 67.248,14 66.672,14 C65.856,14 65.376,14.064 64.592,14.08 C64.496,13.984 64.496,13.808 64.592,13.712 C65.712,13.664 65.936,13.584 65.968,12.256 C66,10.928 66.032,10.192 66.032,8.864 C66.032,7.536 66,6.752 65.968,5.424 C65.936,4.096 65.712,4.016 64.592,3.968 C64.496,3.872 64.496,3.696 64.592,3.6 C65.392,3.616 65.84,3.68 66.64,3.68 Z M78.624,12.256 C78.656,13.584 78.888,13.664 80.008,13.712 C80.104,13.808 80.104,13.984 80.008,14.08 C79.352,14.032 78.424,14 77.944,14 C77.464,14 76.488,14.048 75.864,14.08 C75.768,13.984 75.768,13.808 75.864,13.712 C76.984,13.664 77.232,13.584 77.264,12.256 C77.296,10.928 77.312,10.192 77.312,8.864 C77.312,7.536 77.296,6.752 77.264,5.424 C77.232,4.096 76.984,4.064 75.864,3.968 C75.768,3.872 75.768,3.696 75.864,3.6 C76.376,3.632 77.456,3.68 77.936,3.68 C78.416,3.68 79.416,3.632 80.008,3.6 C80.104,3.696 80.104,3.872 80.008,3.968 C78.888,4.048 78.664,4.096 78.624,5.424 C78.584,6.768 78.576,7.552 78.576,8.88 C78.576,10.208 78.592,10.936 78.624,12.256 Z M10.87,0.833 C10.744,0.707 10.744,0.476 10.87,0.35 C11.857,0.371 12.676,0.455 13.159,0.455 C13.642,0.455 14.167,0.371 15.007,0.35 C15.133,0.476 15.133,0.707 15.007,0.833 C13.621,1.001 13.1359005,2.06570026 12.7327003,3.059 L8.392,13.769 C8.27020026,14.0693001 8.119,14.252 7.888,14.252 C7.678,14.252 7.531,14.0966001 7.405,13.769 L3.2575,3.017 C2.659,1.484 2.365,0.938 1.168,0.833 C1.042,0.707 1.021,0.476 1.147,0.35 C2.134,0.371 2.701,0.455 3.541,0.455 C4.36,0.455 5.095,0.371 6.082,0.35 C6.208,0.476 6.208,0.707 6.082,0.833 C4.654,0.98 4.55530006,1.5365 5.0425,2.786 L8.3815,11.333 L8.56839987,11.5996999 L8.66920026,11.333 L11.983,2.912 C12.4324005,1.76959949 12.424,0.938 10.87,0.833 Z M84.0975,12.551 C83.7573001,13.4266999 84.7568999,13.5673999 85.5465,13.622 C85.6725,13.748 85.6725,13.979 85.5465,14.105 C84.7695,14.084 84.1395,14 83.2785,14 C82.4595,14 81.9765,14.084 81.1995,14.105 C81.0735,13.979 81.0735,13.748 81.1995,13.622 C82.113,13.559 82.7576999,13.3426999 83.2995,12.068 L88.1715,0.602 C88.4445,0.602 88.9485,0.371 89.2635,0.182 L93.6525,12.404 C94.0305,13.475 94.7277003,13.5485 95.5425,13.622 C95.6685,13.748 95.6685,13.979 95.5425,14.105 C94.7655,14.084 93.8625,14 93.0015,14 C92.1825,14 91.0275,14.084 90.2505,14.105 C90.1245,13.979 90.1245,13.748 90.2505,13.622 C91.2501001,13.5506001 92.1005995,13.559 91.8045,12.698 L90.471,8.834 L86.0925,8.834 C85.5885,8.834 85.4625,9.023 85.3575,9.296 L84.0975,12.551 Z M86.4705,8.162 L90.2295,8.162 L88.2135,2.345 L88.1505,2.345 L85.9413001,7.77770026 C85.8531001,7.99189987 86.0085,8.162 86.4705,8.162 Z" id="Combined-Shape"></path>
        </g>

</svg>

<?xml version="1.0" encoding="UTF-8"?><svg viewBox="0 0 95 18" xmlns="http://www.w3.org/2000/svg"><title>Catalan Wikipedia</title><g id="ca" fill="#54595D" fill-rule="evenodd"><path d="M17.072 12.256c-.032-1.32-.048-2.048-.048-3.376 0-1.328.008-2.112.048-3.456.04-1.328.264-1.376 1.384-1.456a.271.271 0 0 0 0-.368c-.592.032-1.592.08-2.072.08s-1.56-.048-2.072-.08a.271.271 0 0 0 0 .368c1.12.096 1.368.128 1.4 1.456a123.309 123.309 0 0 1 0 6.832c-.032 1.328-.28 1.408-1.4 1.456a.271.271 0 0 0 0 .368c.624-.032 1.6-.08 2.08-.08s1.408.032 2.064.08a.271.271 0 0 0 0-.368c-1.12-.048-1.352-.128-1.384-1.456zm7.008-8.4c-1.456 0-3.216 1.552-3.216 4.912 0 3.072 1.888 5.008 3.84 5.008 1.824 0 3.248-1.872 3.248-4.736 0-3.232-1.76-5.184-3.872-5.184zm5.312 4.88c0 1.344-.32 2.5-.957 3.408-.71 1.014-1.765 1.707-3.081 1.934-.535.157-1.396.556-2.2 1.146.115-.016.302-.024.398-.024 1.76 0 3.056 1.312 4.464 1.312.464 0 1.04-.24 1.392-.672l.272.192c-.624.896-1.296 1.312-2.304 1.312-2.08 0-3.088-1.52-4.576-1.52-.24 0-.848.208-1.168.944l-.624-.32c.566-.82 1.7-1.758 2.936-2.306-2.518-.2-4.52-2.121-4.52-5.102 0-1.395.358-2.651 1.06-3.616.878-1.203 2.215-1.952 3.804-1.952 2.864 0 5.104 1.952 5.104 5.264zm3.44.96V7.872c0-.8 0-1.472.032-2.448.032-1.328.304-1.408 1.424-1.456a.271.271 0 0 0 0-.368c-.784.016-1.269.08-2.08.08-.811 0-1.28-.064-2.08-.08a.271.271 0 0 0 0 .368c1.12.048 1.376.128 1.408 1.456.032 1.328.032 2.112.032 3.44v1.36c0 3.264 2.272 3.936 3.712 3.936 3.28 0 3.968-2.032 3.968-4.88V5.424c0-1.328.288-1.344 1.248-1.456a.271.271 0 0 0 0-.368c-.784.016-.955.08-1.568.08-.686 0-.96-.064-1.76-.08a.271.271 0 0 0 0 .368c1.2.112 1.472.128 1.472 1.456v4.144c0 1.792-.336 4.096-3.04 4.096-.768 0-1.408-.416-1.888-.88-.784-.752-.88-2.048-.88-3.088zm11.28 2.56c-.032-1.32-.048-2.048-.048-3.376 0-1.328.008-2.112.048-3.456.04-1.328.264-1.376 1.384-1.456a.271.271 0 0 0 0-.368c-.592.032-1.592.08-2.072.08s-1.56-.048-2.072-.08a.271.271 0 0 0 0 .368c1.12.096 1.368.128 1.4 1.456a123.309 123.309 0 0 1 0 6.832c-.032 1.328-.28 1.408-1.4 1.456a.271.271 0 0 0 0 .368c.624-.032 1.6-.08 2.08-.08s1.408.032 2.064.08a.271.271 0 0 0 0-.368c-1.12-.048-1.352-.128-1.384-1.456zm5.152-2.992c0 1.152.016 2.176.032 3.376.016.928.544 1.008 1.648 1.072a.271.271 0 0 1 0 .368c-.8-.016-1.376-.08-2.272-.08-.816 0-1.296.064-2.08.08a.271.271 0 0 1 0-.368c1.12-.048 1.344-.112 1.376-1.456C48 10.928 48 10.192 48 8.864c0-1.328-.016-2.112-.032-3.44-.016-1.328-.256-1.408-1.376-1.456a.271.271 0 0 1 0-.368c.8.016 1.248.08 2.048.08.64 0 1.76-.16 2.176-.16 2.96 0 3.552 1.76 3.552 2.704 0 1.36-.832 3.184-3.744 3.184-.544 0-1.008-.032-1.36-.144zm.032-4.592a366.136 366.136 0 0 0-.032 4.192v.08c.208.048.88.08 1.264.08 1.552 0 2.432-.784 2.432-2.512 0-2.032-1.136-2.608-2.24-2.608-1.152 0-1.408.304-1.424.768zM58.87.928c-.547.186-.923.437-1.216.72l2.464 1.008c.336.144.56.192.688.192.128 0 .24-.112.24-.24 0-.112-.064-.208-.24-.336L58.87.928zm1.194 7.36l-1.872.016s-.016-2.176.032-3.488c.016-.384.208-.704.592-.704h2.496c1.2 0 1.44.848 1.792 1.952.192.032.224 0 .384-.08-.08-.656-.32-2.24-.352-2.368 0-.032-.016-.048-.064-.048-.272.048-.416.112-.8.112H57.6c-.48 0-1.28-.064-2.08-.08a.271.271 0 0 0 0 .368c1.12.048 1.328.128 1.376 1.456.032 1.312.032 2.112.032 3.44 0 1.328 0 2.08-.032 3.392-.048 1.328-.256 1.408-1.376 1.456a.271.271 0 0 0 0 .368c.784-.016 1.632-.08 2.112-.08h3.552c.768 0 2.048.08 2.048.08.224-.8.448-1.904.576-2.72-.16-.096-.176-.128-.384-.08-.32 1.152-.896 2.304-2.112 2.304h-2.496c-.352 0-.576-.256-.592-.688-.048-1.344-.032-4.144-.032-4.144l1.872.016c1.36.011 1.424.352 1.472 1.072a.251.251 0 0 0 .352 0c-.016-.56-.064-.76-.064-1.248 0-.538.048-.896.064-1.376a.251.251 0 0 0-.352 0c-.048.88-.112 1.06-1.472 1.072zm7.28 3.968c.032.992.144 1.44 1.872 1.44 2.256 0 4.32-1.008 4.32-4.24 0-2.464-1.264-5.472-4.72-5.472-1.472 0-1.44.448-1.472 1.44-.032 1.344-.064 2.128-.064 3.456 0 1.328.016 2.064.064 3.376zM66.64 3.68c.608 0 1.696-.08 2.784-.08 3.072 0 5.552 2.496 5.552 5.472 0 3.936-3.008 5.008-5.264 5.008-1.648 0-2.464-.08-3.04-.08-.816 0-1.296.064-2.08.08a.271.271 0 0 1 0-.368c1.12-.048 1.344-.128 1.376-1.456.032-1.328.064-2.064.064-3.392 0-1.328-.032-2.112-.064-3.44-.032-1.328-.256-1.408-1.376-1.456a.271.271 0 0 1 0-.368c.8.016 1.248.08 2.048.08zm11.984 8.576c.032 1.328.264 1.408 1.384 1.456a.271.271 0 0 1 0 .368 34.427 34.427 0 0 0-2.064-.08c-.48 0-1.456.048-2.08.08a.271.271 0 0 1 0-.368c1.12-.048 1.368-.128 1.4-1.456a119.893 119.893 0 0 0 0-6.832c-.032-1.328-.28-1.36-1.4-1.456a.271.271 0 0 1 0-.368c.512.032 1.592.08 2.072.08s1.48-.048 2.072-.08a.271.271 0 0 1 0 .368c-1.12.08-1.344.128-1.384 1.456-.04 1.344-.048 2.128-.048 3.456 0 1.328.016 2.056.048 3.376zM10.87.833a.356.356 0 0 1 0-.483c.987.021 1.806.105 2.289.105.483 0 1.008-.084 1.848-.105a.356.356 0 0 1 0 .483c-1.386.168-1.871 1.233-2.274 2.226l-4.341 10.71c-.122.3-.273.483-.504.483-.21 0-.357-.155-.483-.483L3.257 3.017C2.66 1.484 2.365.938 1.168.833 1.042.707 1.021.476 1.147.35c.987.021 1.554.105 2.394.105.819 0 1.554-.084 2.541-.105a.356.356 0 0 1 0 .483c-1.428.147-1.527.704-1.04 1.953l3.34 8.547.186.267.101-.267 3.314-8.421c.45-1.142.441-1.974-1.113-2.079zm73.227 11.718c-.34.876.66 1.016 1.45 1.071a.356.356 0 0 1 0 .483c-.778-.021-1.407-.105-2.269-.105-.819 0-1.302.084-2.079.105a.356.356 0 0 1 0-.483c.914-.063 1.559-.28 2.1-1.554L88.171.602c.273 0 .777-.231 1.092-.42l4.39 12.222c.377 1.071 1.075 1.145 1.89 1.218a.356.356 0 0 1 0 .483C94.764 14.084 93.862 14 93 14c-.819 0-1.974.084-2.75.105a.356.356 0 0 1 0-.483c1-.071 1.85-.063 1.553-.924l-1.333-3.864h-4.379c-.504 0-.63.189-.734.462l-1.26 3.255zm2.374-4.389h3.758l-2.016-5.817h-.063l-2.209 5.433c-.088.214.067.384.53.384z" id="Combined-Shape"/></g></svg>
